optimized/24/outline/location.svg

<svg viewBox="0 0 24 24" fill="none" xmlns="http://www.w3.org/2000/svg">
  <g clip-path="url(#clip0_2208_12285)">
    <path d="M12 6.32451C9.92893 6.32451 8.25 8.00344 8.25 10.0745C8.25 12.1456 9.92893 13.8245 12 13.8245C14.0711 13.8245 15.75 12.1456 15.75 10.0745C15.75 8.00344 14.0711 6.32451 12 6.32451ZM9.75 10.0745C9.75 8.83187 10.7574 7.82451 12 7.82451C13.2426 7.82451 14.25 8.83187 14.25 10.0745C14.25 11.3171 13.2426 12.3245 12 12.3245C10.7574 12.3245 9.75 11.3171 9.75 10.0745Z" fill="#333333"/>
    <path d="M20.5 10.2563C20.5 15.2237 15.3208 19.8769 13.0481 21.5745C12.4215 22.0425 11.5785 22.0425 10.9519 21.5745C8.67917 19.8769 3.5 15.2237 3.5 10.2563C3.5 8.08637 4.39553 6.0053 5.98959 4.47091C7.58365 2.93652 9.74566 2.07451 12 2.07451C14.2543 2.07451 16.4163 2.93652 18.0104 4.47091C19.6045 6.0053 20.5 8.08637 20.5 10.2563ZM19 10.2563C19 8.50306 18.277 6.80948 16.9702 5.5516C15.6614 4.29185 13.8746 3.57451 12 3.57451C10.1254 3.57451 8.33858 4.29185 7.02983 5.5516C5.72303 6.80948 5 8.50306 5 10.2563C5 12.2326 6.04462 14.2444 7.53624 16.0738C9.00633 17.8769 10.762 19.5604 11.8496 20.3727C11.9012 20.4113 11.9531 20.4255 12 20.4255C12.0469 20.4255 12.0988 20.4113 12.1504 20.3727C13.238 19.5604 14.9937 17.8769 16.4638 16.0738C17.9554 14.2444 19 12.2326 19 10.2563Z" fill="#333333"/>
  </g>
  <defs>
    <clipPath id="clip0_2208_12285">
      <rect width="24" height="24" fill="white"/>
    </clipPath>
  </defs>
</svg>

<svg xmlns="http://www.w3.org/2000/svg" width="24" height="24" fill="none">
  <g fill="#333" clip-path="url(#a)">
    <path d="M12 6.325a3.75 3.75 0 1 0 0 7.5 3.75 3.75 0 0 0 0-7.5Zm-2.25 3.75a2.25 2.25 0 1 1 4.5 0 2.25 2.25 0 0 1-4.5 0Z"/>
    <path d="M20.5 10.256c0 4.968-5.18 9.62-7.452 11.319a1.74 1.74 0 0 1-2.096 0C8.679 19.877 3.5 15.224 3.5 10.255c0-2.17.896-4.25 2.49-5.785C7.584 2.937 9.746 2.075 12 2.075s4.416.862 6.01 2.396c1.595 1.534 2.49 3.615 2.49 5.785Zm-1.5 0c0-1.753-.723-3.447-2.03-4.704-1.309-1.26-3.095-1.977-4.97-1.977-1.875 0-3.661.717-4.97 1.977C5.723 6.809 5 8.503 5 10.256c0 1.977 1.045 3.988 2.536 5.818 1.47 1.803 3.226 3.486 4.314 4.299a.248.248 0 0 0 .15.052.248.248 0 0 0 .15-.052c1.088-.813 2.844-2.496 4.314-4.3C17.955 14.245 19 12.234 19 10.257Z"/>
  </g>
  <defs>
    <clipPath id="a">
      <path fill="#fff" d="M0 0h24v24H0z"/>
    </clipPath>
  </defs>
</svg>
